fs/arrow_previous_20_regular.svg

<svg viewBox="0 0 20 20" fill="none" xmlns="http://www.w3.org/2000/svg" height="1em" width="1em">
  <path d="M6 5C5.75454 5 5.55039 5.17688 5.50806 5.41012L5.5 5.5V14.5C5.5 14.7761 5.72386 15 6 15C6.24546 15 6.44961 14.8231 6.49194 14.5899L6.5 14.5V5.5C6.5 5.22386 6.27614 5 6 5ZM13.8536 5.14645C13.68 4.97288 13.4106 4.9536 13.2157 5.08859L13.1464 5.14645L8.64645 9.64645C8.47288 9.82001 8.4536 10.0894 8.58859 10.2843L8.64645 10.3536L13.1464 14.8536C13.3417 15.0488 13.6583 15.0488 13.8536 14.8536C14.0271 14.68 14.0464 14.4106 13.9114 14.2157L13.8536 14.1464L9.70711 10L13.8536 5.85355C14.0488 5.65829 14.0488 5.34171 13.8536 5.14645Z" fill="#212121"/>
</svg>

<svg viewBox="0 0 20 20" fill="none" xmlns="http://www.w3.org/2000/svg" height="1em" width="1em">
  <path d="M6 5a.5.5 0 0 0-.492.41L5.5 5.5v9a.5.5 0 0 0 .992.09l.008-.09v-9A.5.5 0 0 0 6 5Zm7.854.146a.5.5 0 0 0-.638-.057l-.07.057-4.5 4.5a.5.5 0 0 0-.057.638l.057.07 4.5 4.5a.5.5 0 0 0 .765-.638l-.057-.07L9.707 10l4.147-4.146a.5.5 0 0 0 0-.708Z" fill="#212121"/>
</svg>
